public/Logos/Logo_pinart.svg

<svg fill="none" height="68" viewBox="0 0 70 68" width="70" xmlns="http://www.w3.org/2000/svg"><path d="m0 0h70v68h-70z" fill="#000"/><path d="m44.5793 33.3498h-3.9723c-.0779-.3401-.7014-15.1904-.9937-22.3034-.0351-.86.3741-1.16359 1.4653-1.22874 2.1926-.1303 4.3788-.31402 6.7546-.48993 1.7909 5.12517 3.5769 10.24327 5.3583 15.35447l.5741-.0391c.178-2.9056.6404-12.4058.8171-15.31537h4.0268c.0506.42348 0 7.33587 0 7.65247-.0442 5.057.0221 16.165.0221 16.165s-5.8064.1772-7.7666.3062l-5.6921-14.7916-.5936.043z" fill="#50e3c2"/><path d="m14.7926 54.1717 5.983-.146v-7.0231l-6.9612.7427c.3248 2.1317.6378 4.1917.9782 6.4264zm5.5102-10.8839-.7898-3.926h-11.47379l-1.03918-3.7604s6.90277-.245 11.11397-.3479c.7273-.0222 1.4526.0859 2.142.3192 2.4109.9668 4.7616 1.971 7.0521 3.0125.5274.2398 1.0392.662 1.0392.9994.0611 6.545.0442 13.0886.0442 19.6427l-5.3401.0573-.8105-1.9388-9.3526 2.1812-4.85299-9.3816 3.65399-6.5006s6.526-.2476 8.6083-.3636" fill="#b550f8"/><path d="m19.9831 14.1775-6.226.3609c.2806 2.8953.5482 5.6668.8314 8.5998l6.2857-.5082c-.304-2.89-.5872-5.5807-.8898-8.4473m-11.95056-3.7969c4.29826-.3727 12.64806-1.06197 12.64806-1.06197l6.5066 5.09337s-.9093 9.0103-1.464 11.8573l-11.379.5329c.2105 2.4484.4157 4.8094.6261 7.2356h-6.93256z" fill="#f8e71c"/><path d="m47.1207 46.8918c-5.1959.3258-5.1829.3258-5.3985-3.0451-.0792-1.2535-.2689-2.5043-.4157-3.8269l-4.4749.6515c.4117 6.188.8222 12.3329 1.2392 18.612l-5.066-.4065c-.3066-8.0564-.6118-16.0269-.9197-24.1302l4.1372-.5342c.0689 1.028.1299 1.9323.204 3.0568 1.1613-.6515 4.3697-2.0209 4.3697-2.0209l5.7804 1.3889s.5443 7.2747.5443 10.252" fill="#fd725b"/><path d="m62.0907 40.7899v5.6694h-6.7065c.2039 3.3682.3897 6.5423.5936 9.8324l3.3916.1238c.1754-1.7434.339-3.3722.5014-4.984l3.1292.5212-.5845 6.8355-3.7865 1.2118s-5.1582-1.0085-6.7235-1.2848v-12.9218l-2.9227-.4404c-.1922-1.26-.3806-2.4874-.5819-3.8047l2.872-.4378v-5.8635h4.0957v5.5429z" fill="#f8e71c"/><path d="m30.6492 16.9985h3.7228c.1936 2.0665.3988 4.094.5716 6.1241.2364 2.7519.7118 9.6161.7118 9.6161s-3.767.2606-5.0088.4065z" fill="#fa4892"/><path d="m29.5163 8.38047 5.1349-.38047v5.3905l-4.6244.542c-.174-1.8932-.3377-3.6783-.5105-5.55203z" fill="#4a90e2"/></svg>

<svg width="70" height="68" viewBox="0 0 70 68" fill="none" xmlns="http://www.w3.org/2000/svg">
<rect width="70" height="68" fill="black"/>
<path d="M44.5793 33.3498H40.607C40.5291 33.0097 39.9056 18.1594 39.6133 11.0464C39.5782 10.1864 39.9874 9.88281 41.0786 9.81766C43.2712 9.68736 45.4574 9.50364 47.8332 9.32773C49.6241 14.4529 51.4101 19.571 53.1915 24.6822L53.7656 24.6431C53.9436 21.7375 54.406 12.2373 54.5827 9.32773H58.6095C58.6601 9.75121 58.6095 16.6636 58.6095 16.9802C58.5653 22.0372 58.6316 33.1452 58.6316 33.1452C58.6316 33.1452 52.8252 33.3224 50.865 33.4514L45.1729 18.6598L44.5793 18.7028V33.3498Z" fill="#50E3C2"/>
<path d="M14.7926 54.1717L20.7756 54.0257V47.0026L13.8144 47.7453C14.1392 49.877 14.4522 51.937 14.7926 54.1717ZM20.3028 43.2878L19.513 39.3618H8.03921L7.00003 35.6014C7.00003 35.6014 13.9028 35.3564 18.114 35.2535C18.8413 35.2313 19.5666 35.3394 20.256 35.5727C22.6669 36.5395 25.0176 37.5437 27.3081 38.5852C27.8355 38.825 28.3473 39.2472 28.3473 39.5846C28.4084 46.1296 28.3915 52.6732 28.3915 59.2273L23.0514 59.2846L22.2409 57.3458L12.8883 59.527L8.03531 50.1454L11.6893 43.6448C11.6893 43.6448 18.2153 43.3972 20.2976 43.2812" fill="#B550F8"/>
<path d="M19.9831 14.1775L13.7571 14.5384C14.0377 17.4337 14.3053 20.2052 14.5885 23.1382L20.8742 22.63C20.5702 19.74 20.287 17.0493 19.9844 14.1827M8.03384 10.3858C12.3321 10.0131 20.6819 9.32383 20.6819 9.32383L27.1885 14.4172C27.1885 14.4172 26.2792 23.4275 25.7245 26.2745L14.3455 26.8074C14.556 29.2558 14.7612 31.6168 14.9716 34.043H8.03904L8.03384 10.3858Z" fill="#F8E71C"/>
<path d="M47.1207 46.8918C41.9248 47.2176 41.9378 47.2176 41.7222 43.8467C41.643 42.5932 41.4533 41.3424 41.3065 40.0198L36.8316 40.6713C37.2433 46.8593 37.6538 53.0042 38.0708 59.2833L33.0048 58.8768C32.6982 50.8204 32.393 42.8499 32.0851 34.7466L36.2223 34.2124C36.2912 35.2404 36.3522 36.1447 36.4263 37.2692C37.5876 36.6177 40.796 35.2483 40.796 35.2483L46.5764 36.6372C46.5764 36.6372 47.1207 43.9119 47.1207 46.8892" fill="#FD725B"/>
<path d="M62.0907 40.7899V46.4593H55.3842C55.5881 49.8275 55.7739 53.0016 55.9778 56.2917L59.3694 56.4155C59.5448 54.6721 59.7084 53.0433 59.8708 51.4315L63 51.9527L62.4155 58.7882L58.629 60C58.629 60 53.4708 58.9915 51.9055 58.7152V45.7934L48.9828 45.353C48.7906 44.093 48.6022 42.8656 48.4009 41.5483L51.2729 41.1105V35.247H55.3686V40.7899H62.0907Z" fill="#F8E71C"/>
<path d="M30.6492 16.9985H34.372C34.5656 19.065 34.7708 21.0925 34.9436 23.1226C35.18 25.8745 35.6554 32.7387 35.6554 32.7387C35.6554 32.7387 31.8884 32.9993 30.6466 33.1452L30.6492 16.9985Z" fill="#FA4892"/>
<path d="M29.5163 8.38047L34.6512 8V13.3905L30.0268 13.9325C29.8528 12.0393 29.6891 10.2542 29.5163 8.38047Z" fill="#4A90E2"/>
</svg>
